X:7
T:Mele's
R:Reel
C:Chris Gray
L:1/8
M:C|
K:D
Q:"87 bpm"
[|: {gAGAG}A2 {g}AB {gcd}c2 {g}B{d}A | {g}eA{d}ce {g}fd{G}df | {g}eA{g}c{d}A {gcd}c2 {g}B{d}A | {g}fe{A}ec {A}B2 {g}cB |
{gAGAG}A2 {g}AB {gcd}c2 {g}B{d}A | {g}eA{d}ce {g}fA{g}df | {ag}a2 {cd}ce {g}dB{g}GA | {g}B{G}B{g}Bc {G}A2{g}e2 :|]
{g}fA{g}df a{g}aef | {g}eA{g}c{d}A {g}cd{G}df | {g}ec{g}AB {gcd}c2 {g}B{d}A | {g}fe{A}ec {A}B2 {g}ce | 
{g}fA{g}df a{g}aef | {g}ec{g}B{d}c {g}AB{g}c{d}A | {ag}a2 {cd}ce {g}dB{g}GA | {g}B{G}B{g}Bc {g}AB{g}ce | 
{g}fA{g}df a{g}aef | {g}eA{g}c{d}A {g}cd{G}df | {g}ec{g}AB {gcd}c2 {g}B{d}A | {g}fe{A}ec {A}B2 {g}cB | 
{gAGAG}A2 {g}AB {gcd}c2 {g}B{d}A [M:3/2]| {g}eA{d}ce {g}f4 [M:C|]| {g}f2a2 e2 {g}BA | {g}B{G}B{g}Bc {G}A2 z2 |]